X: 8
T: Carolan's Welcome
R: waltz
M: 3/4
L: 1/8
K: Bmin
V:1
dc|:B2 de f2|B2 de f2|ef ed cB|(3ABc A2 F2|
V:2
dc|:B3c d2|d3c B2|c3d cB|A4 F2|
V:1
d3c B2|e3d c2|df F2 A2|B4 dc|
V:2
d3A GF|G3A Bc|d3d cd|B4 dc|
V:1
B2 de f2|B2 de f2|ef ed cB|(3ABc A2 F2|
V:2
B3c d2|d3c B2|c3d cB|A4 F2|
V:1
a3g f2|b3a fe|df ed cd|[1 B4 dc :|[2 B4 B2|]
V:2
d6|e6|d4 cd|[1B6:|[2B6|]
V:1
|:F2 Bc d2|F2 Bc d2|dc BA Bc|d2 F2 F2|
V:2
|:B6|B6|B6|A6|
V:1
g2 bg fe|f2 af ed|e2 f2 a2|b6|
V:2
e6|d6|c6|dc BA FA|
V:1
ba fa b2|afef a2|fe de fd|e2 c2 (3ABc|
V:2
g6|f6|d6|cd ef ge|
V:1
d3c B2|e3d c2|df F2 A2|[1 B4 B2 :|[2 B6|]
V:2
fe dc df|GF GA Bc|d4 cd|[1B6:|[2 B6|]


Tune 1055	Setting 24393

